packages/kaspersky-hexa-ui-icons/src/iconsSVGs/24/File.svg

<svg width="24" height="24" viewBox="0 0 24 24" fill="none" xmlns="http://www.w3.org/2000/svg">
<path fill-rule="evenodd" clip-rule="evenodd" d="M7 2C5.34315 2 4 3.34315 4 5V19C4 20.6569 5.34315 22 7 22H17C18.6569 22 20 20.6569 20 19V9.21461C20 8.81866 19.8434 8.43877 19.5645 8.15778L13.891 2.44317C13.6093 2.15952 13.2262 2 12.8265 2H7ZM6 5C6 4.44772 6.44772 4 7 4H12.0093L12.0093 6.98488C12.0093 8.64174 13.3524 9.98489 15.0093 9.98489H18V19C18 19.5523 17.5523 20 17 20H7C6.44772 20 6 19.5523 6 19V5ZM16.5746 7.98489L14.0093 5.40105L14.0093 6.98489C14.0093 7.53717 14.457 7.98489 15.0093 7.98489H16.5746Z" fill="black"/>
</svg>

<svg xmlns="http://www.w3.org/2000/svg" width="24" height="24" fill="none" viewBox="0 0 24 24"><path fill="#000" fill-rule="evenodd" d="M7 2C5.3431 2 4 3.3432 4 5v14c0 1.6569 1.3431 3 3 3h10c1.6569 0 3-1.3431 3-3V9.2146c0-.396-.1566-.7758-.4355-1.0568L13.891 2.4432A1.5 1.5 0 0 0 12.8265 2zM6 5c0-.5523.4477-1 1-1h5.0093v2.9849c0 1.6568 1.3431 3 3 3H18V19c0 .5523-.4477 1-1 1H7c-.5523 0-1-.4477-1-1zm10.5746 2.9849L14.0093 5.401v1.5838c0 .5523.4477 1 1 1z"/></svg>
